src/lib/packages/icons/src/assets/line/file-download.svg

<svg xmlns="http://www.w3.org/2000/svg" width="24" height="24" fill="none"><path fill="currentColor" d="m20.53 8.47-6-6a.749.749 0 0 0-.53-.22H8C5.582 2.25 4.25 3.582 4.25 6v12c0 2.418 1.332 3.75 3.75 3.75h9c2.418 0 3.75-1.332 3.75-3.75V9a.747.747 0 0 0-.22-.53Zm-5.78-3.659 3.439 3.439H17c-1.577 0-2.25-.673-2.25-2.25V4.811ZM17 20.25H8c-1.577 0-2.25-.673-2.25-2.25V6c0-1.577.673-2.25 2.25-2.25h5.25V6c0 2.418 1.332 3.75 3.75 3.75h2.25V18c0 1.577-.673 2.25-2.25 2.25Zm-3.47-5.78a.75.75 0 0 1 0 1.061l-2 2a.75.75 0 0 1-.818.162.749.749 0 0 1-.244-.162l-2-2a.75.75 0 1 1 1.061-1.061l.72.72V12a.75.75 0 0 1 1.5 0v3.189l.72-.72a.751.751 0 0 1 1.061.001Z"/></svg>

<svg width="24" height="24" viewBox="0 0 24 24" fill="none" xmlns="http://www.w3.org/2000/svg">
<path d="M20.53 8.47L14.53 2.47C14.389 2.329 14.199 2.25 14 2.25H8C5.582 2.25 4.25 3.582 4.25 6V18C4.25 20.418 5.582 21.75 8 21.75H17C19.418 21.75 20.75 20.418 20.75 18V9C20.75 8.801 20.671 8.61 20.53 8.47ZM14.75 4.811L18.189 8.25H17C15.423 8.25 14.75 7.577 14.75 6V4.811ZM17 20.25H8C6.423 20.25 5.75 19.577 5.75 18V6C5.75 4.423 6.423 3.75 8 3.75H13.25V6C13.25 8.418 14.582 9.75 17 9.75H19.25V18C19.25 19.577 18.577 20.25 17 20.25ZM13.53 14.47C13.823 14.763 13.823 15.238 13.53 15.531L11.53 17.531C11.461 17.6 11.3779 17.655 11.2859 17.693C11.1939 17.731 11.097 17.751 10.999 17.751C10.901 17.751 10.8039 17.731 10.7119 17.693C10.6199 17.655 10.537 17.6 10.468 17.531L8.46802 15.531C8.17502 15.238 8.17502 14.763 8.46802 14.47C8.76102 14.177 9.23605 14.177 9.52905 14.47L10.249 15.19V12C10.249 11.586 10.585 11.25 10.999 11.25C11.413 11.25 11.749 11.586 11.749 12V15.189L12.469 14.469C12.763 14.177 13.237 14.177 13.53 14.47Z" fill="currentColor"/>
</svg>
